X:199
T: Mai hua diao
N: C1691
O: China, Jiangxi, Yongxiu
S: IV, 260]
R: Xiaodiao]
M: 2/4
L: 1/16
K: G
E2D2E2G2 | A4A4 |
d2ddd2G2 | A4A4 |
G2ABA3B | AGE2D4 |
A4G4 | E2G2A2D2 | E3GG2E2 | D8

